svg/u1f3ea.svg

<svg viewBox="0 0 128 128" xmlns="http://www.w3.org/2000/svg">
  <rect height="9.91" fill="#5C6567" width="6.66" x="16.21" y="45.77"/>
  <rect height="9.16" fill="#5C6567" width="6.9" x="57" y="46.9"/>
  <rect height="45.62" fill="#E1E1E1" width="106.39" x="11.03" y="73.73"/>
  <path d="M6.97,122.72c0,0.9,0.51,1.16,2.18,1.16s109.35-0.13,110.25-0.13s1.8-0.77,1.8-1.93 c0-1.16,0.3-3.68-0.12-4.72c-0.42-1.04-3.86-2.35-3.86-2.35H10.7c0,0-2.91,1.46-3.47,2.57S6.97,121.69,6.97,122.72z" fill="#9A9A9A"/>
  <path d="M46.54,74.86c0,0-1.83,0.59-1.93,1.77c-0.1,1.18,0,36.62,0,37.21s0.3,1.38,1.52,1.38 c1.22,0,35.73,0,36.34,0s1.32-0.59,1.32-1.28c0-0.69,0-36.62,0-37.41s-1.22-1.58-1.93-1.67C81.16,74.77,46.54,74.86,46.54,74.86z" fill="#00C1EC"/>
  <rect height="3.76" fill="#178BFD" width="39.39" x="44.51" y="95.27"/>
  <rect height="3.35" fill="#00AA46" width="39.38" x="44.51" y="92.23"/>
  <rect height="40.47" fill="#B0E4FF" width="3.65" x="62.58" y="74.76"/>
  <path d="M64.74,59.72L6.02,72.09c0,0,0.2,2.39,1.76,3.21c0.87,0.46,3.24,0.32,3.24,0.32s108.46,0,109.19,0 c0.73,0,1.69-0.82,1.78-1.87c0.09-1.05,0-2.1,0-2.1L64.74,59.72z" fill="#016DA7"/>
  <path d="M6.02,72.1l-0.03-4.63l2.51-3.67l113.56,4.16l-0.02,4.09C122.04,72.05,6.23,71.88,6.02,72.1z" fill="#178BFD"/>
  <path d="M5.99,67.47v-6.72l55.33-3.6l60.79,3.6l-0.05,7.2C122.06,67.96,6.07,67.55,5.99,67.47z" fill="#E1E1E1"/>
  <path d="M5.99,60.75c0,0,0-2.57,0-3.92s0.63-2.7,2.7-2.7s109.21,0,110.64,0c1.43,0,2.85,0.72,2.85,1.99 s-0.07,4.63-0.07,4.63H5.99z" fill="#02AB46"/>
  <path d="M11.1,4.28l56.99-0.05c1.36,0,2.47,1.1,2.47,2.47V46.5c0,1.68-1.36,3.03-3.03,3.03H11.47 c-1.41,0-2.55-1.13-2.57-2.53L8.75,6.66C8.73,5.35,9.79,4.28,11.1,4.28z" fill="#ED6D30"/>
  <path d="M21.99,21.55c0.77-0.35,2.65-3.43,5-3.25s2.39,3.26,0.42,5.84c-1.93,2.53-3.73,4.52-6.75,8.61 c-3.07,4.17-3.07,8.19-2.53,8.85c0.54,0.66,1.81,0.54,5,0.6c3.19,0.06,12.53,0.06,12.95-0.3c0.42-0.36,0.24-4.7,0.24-5.24 s-0.72-1.45-1.57-1.45c-0.84,0-7.41,0.06-7.41,0.06s2-2.73,4.1-5.72c3.13-4.46,5.29-8.6,4.94-11.62c-0.6-5.24-4.04-8.01-10.36-7.23 c-5.46,0.68-8.91,6.56-8.61,7.29C18,19.4,21.21,21.91,21.99,21.55z" fill="#FFFFFF"/>
  <path d="M60.41,28.66c-0.04-0.54-1.2-0.54-2.11-0.54c-0.9,0-2.05-0.06-2.05-0.06s-0.12-16.26-0.12-17.22 c0-0.96-1.32-1.63-2.89-1.57c-1.45,0.06-2.11,0-3.25,1.51c-0.93,1.22-11.36,17.36-12.23,18.67c-1.14,1.75-2.23,4.88,0.96,5.24 c3.19,0.36,10.84,0,10.84,0s0,5.48,0,6.08s0.18,1.08,1.14,1.08c0.96,0,4.04,0,4.64,0c0.6,0,0.9-0.3,0.9-1.51c0-1.2,0-5.66,0-5.66 s2.53,0.06,3.25,0c0.72-0.06,0.9-1.14,0.9-1.75S60.53,30.16,60.41,28.66z M45.78,28.35l3.73-6.08c-0.12,0,0,5.96,0,5.96L45.78,28.35 z" fill="#FFFFFF"/>
  <rect height="17.71" fill="#A7D0D6" width="23.03" x="89.14" y="79.29"/>
  <rect height="17.83" fill="#A7D0D6" width="22.91" x="16.63" y="79.53"/>
</svg>

<svg viewBox="0 0 128 128" xmlns="http://www.w3.org/2000/svg">
  <defs/>
  <path d="M16.21,45.77 L22.87,45.77 L22.87,55.68 L16.21,55.68 L16.21,45.77 Z" fill="#5C6567"/>
  <path d="M57,46.9 L63.9,46.9 L63.9,56.06 L57,56.06 L57,46.9 Z" fill="#5C6567"/>
  <path d="M11.03,73.73 L117.42,73.73 L117.42,119.35 L11.03,119.35 L11.03,73.73 Z" fill="#E1E1E1"/>
  <path d="M6.97,122.72 C6.97,123.62 7.48,123.88 9.15,123.88 C10.82,123.88 118.5,123.75 119.4,123.75 C120.3,123.75 121.2,122.98 121.2,121.82 C121.2,120.66 121.5,118.14 121.08,117.1 C120.66,116.06 117.22,114.75 117.22,114.75 L10.7,114.75 C10.7,114.75 7.79,116.21 7.23,117.32 C6.67,118.43 6.97,121.69 6.97,122.72 Z" fill="#9A9A9A"/>
  <path d="M46.54,74.86 C46.54,74.86 44.71,75.45 44.61,76.63 C44.51,77.81 44.61,113.25 44.61,113.84 C44.61,114.43 44.91,115.22 46.13,115.22 C47.35,115.22 81.86,115.22 82.47,115.22 C83.08,115.22 83.79,114.63 83.79,113.94 C83.79,113.25 83.79,77.32 83.79,76.53 C83.79,75.74 82.57,74.95 81.86,74.86 C81.16,74.77 46.54,74.86 46.54,74.86 Z" fill="#00C1EC"/>
  <path d="M44.51,95.27 L83.9,95.27 L83.9,99.03 L44.51,99.03 L44.51,95.27 Z" fill="#178BFD"/>
  <path d="M44.51,92.23 L83.89,92.23 L83.89,95.58 L44.51,95.58 L44.51,92.23 Z" fill="#00AA46"/>
  <path d="M62.58,74.76 L66.23,74.76 L66.23,115.23 L62.58,115.23 L62.58,74.76 Z" fill="#B0E4FF"/>
  <path d="M64.74,59.72 L6.02,72.09 C6.02,72.09 6.22,74.48 7.78,75.3 C8.65,75.76 11.02,75.62 11.02,75.62 C11.02,75.62 119.48,75.62 120.21,75.62 C120.94,75.62 121.9,74.8 121.99,73.75 C122.08,72.7 121.99,71.65 121.99,71.65 L64.74,59.72 Z" fill="#016DA7"/>
  <path d="M6.02,72.1 L5.99,67.47 L8.5,63.8 L122.06,67.96 L122.04,72.05 C122.04,72.05 6.23,71.88 6.02,72.1 Z" fill="#178BFD"/>
  <path d="M5.99,67.47 L5.99,60.75 L61.32,57.15 L122.11,60.75 L122.06,67.95 C122.06,67.96 6.07,67.55 5.99,67.47 Z" fill="#E1E1E1"/>
  <path d="M5.99,60.75 C5.99,60.75 5.99,58.18 5.99,56.83 C5.99,55.48 6.62,54.13 8.69,54.13 C10.76,54.13 117.9,54.13 119.33,54.13 C120.76,54.13 122.18,54.85 122.18,56.12 C122.18,57.39 122.11,60.75 122.11,60.75 L5.99,60.75 Z" fill="#02AB46"/>
  <path d="M11.1,4.28 L68.09,4.23 C69.45,4.23 70.56,5.33 70.56,6.7 L70.56,46.5 C70.56,48.18 69.2,49.53 67.53,49.53 L11.47,49.53 C10.06,49.53 8.92,48.4 8.9,47 L8.75,6.66 C8.73,5.35 9.79,4.28 11.1,4.28 Z" fill="#ED6D30"/>
  <path d="M21.99,21.55 C22.76,21.2 24.64,18.12 26.99,18.3 C29.34,18.48 29.38,21.56 27.41,24.14 C25.48,26.67 23.68,28.66 20.66,32.75 C17.59,36.92 17.59,40.94 18.13,41.6 C18.67,42.26 19.94,42.14 23.13,42.2 C26.32,42.26 35.66,42.26 36.08,41.9 C36.5,41.54 36.32,37.2 36.32,36.66 C36.32,36.12 35.6,35.21 34.75,35.21 C33.91,35.21 27.34,35.27 27.34,35.27 C27.34,35.27 29.34,32.54 31.44,29.55 C34.57,25.09 36.73,20.95 36.38,17.93 C35.78,12.69 32.34,9.92 26.02,10.7 C20.56,11.38 17.11,17.26 17.41,17.99 C18,19.4 21.21,21.91 21.99,21.55 Z" fill="#FFFFFF"/>
  <path d="M60.41,28.66 C60.37,28.12 59.21,28.12 58.3,28.12 C57.4,28.12 56.25,28.06 56.25,28.06 C56.25,28.06 56.13,11.8 56.13,10.84 C56.13,9.88 54.81,9.21 53.24,9.27 C51.79,9.33 51.13,9.27 49.99,10.78 C49.06,12 38.63,28.14 37.76,29.45 C36.62,31.2 35.53,34.33 38.72,34.69 C41.91,35.05 49.56,34.69 49.56,34.69 C49.56,34.69 49.56,40.17 49.56,40.77 C49.56,41.37 49.74,41.85 50.7,41.85 C51.66,41.85 54.74,41.85 55.34,41.85 C55.94,41.85 56.24,41.55 56.24,40.34 C56.24,39.14 56.24,34.68 56.24,34.68 C56.24,34.68 58.77,34.74 59.49,34.68 C60.21,34.62 60.39,33.54 60.39,32.93 C60.39,32.32 60.53,30.16 60.41,28.66 Z M45.78,28.35 L49.51,22.27 C49.39,22.27 49.51,28.23 49.51,28.23 L45.78,28.35 Z" fill="#FFFFFF"/>
  <path d="M89.14,79.29 L112.17,79.29 L112.17,97 L89.14,97 L89.14,79.29 Z" fill="#A7D0D6"/>
  <path d="M16.63,79.53 L39.54,79.53 L39.54,97.36 L16.63,97.36 L16.63,79.53 Z" fill="#A7D0D6"/>
</svg>
